assets/img/braze_icons/laptop-02.svg

<svg fill="none" height="24" viewBox="0 0 24 24" width="24" xmlns="http://www.w3.org/2000/svg"><g fill="#801ed7"><path d="m6.16136 3h11.67714c.5271-.00002.9819-.00003 1.3564.03057.3954.0323.7886.10362 1.167.29641.5645.28762 1.0234.74657 1.311 1.31105.1928.37838.2641.7716.2964 1.16695.0306.37456.0306.82932.0306 1.35646v6.23856c0 .5601 0 .8401-.109 1.054-.0959.1882-.2488.3411-.437.437-.2139.109-.4939.109-1.054.109h-16.79999c-.56006 0-.84008 0-1.05399-.109-.18817-.0959-.34115-.2488-.43702-.437-.10899-.2139-.10899-.4939-.10899-1.054l-.00001-6.23854c-.00001-.52715-.00003-.98191.03058-1.35648.0323-.39535.10361-.78857.29641-1.16695.28762-.56448.74656-1.02343 1.31104-1.31105.37838-.19279.7716-.26411 1.16695-.29641.37455-.0306.82936-.03059 1.35648-.03057z"/><path d="m2.4161 17c-.47806 0-.71709 0-.949.1338-.17053.0983-.3722.3383-.43972.5232-.091819.2515-.061127.4271.00026.7782.02098.12.04594.2346.07453.3413.2774 1.0353 1.08604 1.8439 2.12132 2.1213.38553.1033.82356.1029 1.33128.1023h14.89033c.5077.0006.9458.001 1.3313-.1023 1.0353-.2774 1.8439-1.086 2.1213-2.1213.0285-.1063.0534-.2206.0743-.3404.0614-.3519.0921-.5279.0002-.7793-.0676-.185-.2691-.4247-.4397-.5231-.2319-.1337-.4713-.1337-.9499-.1337z"/></g></svg>

<svg width="24" height="24" viewBox="0 0 24 24" fill="none" xmlns="http://www.w3.org/2000/svg">
<path d="M6.16136 3H17.8385C18.3656 2.99998 18.8204 2.99997 19.1949 3.03057C19.5903 3.06287 19.9835 3.13419 20.3619 3.32698C20.9264 3.6146 21.3853 4.07355 21.6729 4.63803C21.8657 5.01641 21.937 5.40963 21.9693 5.80498C21.9999 6.17954 21.9999 6.6343 21.9999 7.16144V13.4C21.9999 13.9601 21.9999 14.2401 21.8909 14.454C21.795 14.6422 21.6421 14.7951 21.4539 14.891C21.24 15 20.96 15 20.3999 15H3.59991C3.03985 15 2.75983 15 2.54592 14.891C2.35775 14.7951 2.20477 14.6422 2.1089 14.454C1.99991 14.2401 1.99991 13.9601 1.99991 13.4L1.9999 7.16146C1.99989 6.63431 1.99987 6.17955 2.03048 5.80498C2.06278 5.40963 2.13409 5.01641 2.32689 4.63803C2.61451 4.07355 3.07345 3.6146 3.63793 3.32698C4.01631 3.13419 4.40953 3.06287 4.80488 3.03057C5.17943 2.99997 5.63424 2.99998 6.16136 3Z" fill="#801ED7"/>
<path d="M2.4161 17C1.93804 17 1.69901 17 1.4671 17.1338C1.29657 17.2321 1.0949 17.4721 1.02738 17.657C0.935561 17.9085 0.966253 18.0841 1.02764 18.4352C1.04862 18.5552 1.07358 18.6698 1.10217 18.7765C1.37957 19.8118 2.18821 20.6204 3.22349 20.8978C3.60902 21.0011 4.04705 21.0007 4.55477 21.0001H19.4451C19.9528 21.0007 20.3909 21.0011 20.7764 20.8978C21.8117 20.6204 22.6203 19.8118 22.8977 18.7765C22.9262 18.6702 22.9511 18.5559 22.972 18.4361C23.0334 18.0842 23.0641 17.9082 22.9722 17.6568C22.9046 17.4718 22.7031 17.2321 22.5325 17.1337C22.3006 17 22.0612 17 21.5826 17H2.4161Z" fill="#801ED7"/>
</svg>
